X: 2
T: The Glorious 13th
R: reel
M: 4/4
L: 1/8
K: Dmaj
DAGF A3F|GFGA B2A2|AdAF G2FE|1 FAFD E4:|2 DAGA D4:|
d2A2 d3c|BABc dedB|A2D2 A2GF|1 EFGA BABc|2 EFGA D4:|

